X:1
T: Hon. Capt. Elliot's Quickstep
C:
R:Reel
Q: 232
K:Bb
M:4/4
L:1/8
F|B4 ce cA|B2 d2 f4|e2 c2 d2 B2|G2 cB AF GA|B4 ce cA|d4 eg fe|d2 B2 G2 A2|B4 B2 F2|
B4 ce cA|B2 d2 f4|e2 c2 d2 B2|G2 cB AF GA|B4 ce cA|d4 eg fe|d2 B2 G2 A2|B4 B2 F2|
A2 B2 c2 A2|F2 fe d4|B2 g2 fe dc|BA cB AG FE|D2 d2 E2 e2|F2 f2 G2 g2|f2 df e2 A2|B4 B2 F2|
A2 B2 c2 A2|F2 fe d4|B2 g2 fe dc|BA cB AG FE|D2 d2 E2 e2|F2 f2 G2 g2|f2 df e2 A2|B4 B2||
